src/logos/logo-white-on-transparent-es.svg

<svg height="17" viewBox="0 0 150 17" width="150" xmlns="http://www.w3.org/2000/svg"><g fill="#fff" fill-rule="evenodd" transform="translate(0 3)"><path d="m58.5281385 5.95238095c-.0865801-3.24675324-2.8354978-5.8008658-6.0822511-5.8008658h-3.8311688c-3.2900433 0-5.9523809 2.66233766-5.9523809 5.95238095 0 1.70995671.7359307 3.33333334 2.012987 4.4588745l-1.3203463 3.1168831 3.2683982-1.969697c.6277057.2380952 1.2987013.3463204 1.991342.3463204h3.982684c3.3333333 0 6.017316-2.74891779 5.9307359-6.10389615zm-5.9090909 3.93939394h-3.9610389c-1.7099568 0-3.4415585-1.34199134-3.7662338-3.03030303-.4761905-2.42424242 1.3636364-4.54545454 3.7229437-4.54545454h3.961039c1.7099567 0 3.4415584 1.34199134 3.7662337 3.03030303.4545455 2.42424242-1.3852813 4.54545454-3.7229437 4.54545454z"/><g fill-rule="nonzero"><path d="m.02164502 2.68398268v-1.99134199h8.87445888v1.99134199h-3.26839827v8.80952382h-2.38095238v-8.80952382z"/><path d="m12.1645022.69264069v4.15584416h4.3722943v-4.15584416h2.3809524v10.82251081h-2.3809524v-4.67532466h-4.3722943v4.67532466h-2.38095242v-10.82251081z"/><path d="m27.965368.69264069v1.99134199h-5.7142857v2.31601732h5.2380952v1.83982684h-5.2380952v2.64069264h5.8225108v1.99134202h-8.2034632v-10.82251085z"/><path d="m39.1774892 3.57142857c-.1515152-.23809524-.3246753-.43290043-.5194805-.6060606-.4329005-.34632035-.995671-.54112555-1.5584416-.54112555-.4761905-.02164502-.952381.08658009-1.3636364.30303031-.3679653.19480519-.6709956.47619047-.9090909.84415584-.2380952.36796537-.4112554.75757576-.5194805 1.19047619-.1082251.45454546-.1515151.90909091-.1515151 1.38528139 0 .45454545.04329.88744588.1515151 1.32034632.1082251.41125541.2813853.8008658.5194805 1.16883117.2380953.34632034.5411256.62770562.9090909.82251082.4112554.21645022.8874459.32467532 1.3636364.3030303.6277056.04329005 1.2554113-.21645021 1.7099567-.67099567.4329004-.4978355.6926407-1.1038961.7575758-1.75324675h2.2943723c-.0432901.62770563-.2164503 1.25541125-.4761905 1.83982684-.2380953.51948052-.5844156.99567102-.995671 1.38528142s-.9090909.6926407-1.4502165.8874459c-.5844155.2164502-1.2121212.3030303-1.8398268.3030303-.7575758.021645-1.5367965-.1298702-2.2294372-.4329005-.6277057-.2597402-1.2121212-.6709957-1.6666667-1.1904762-.4545455-.51948049-.8225108-1.1255411-1.038961-1.77489175-.2380953-.71428571-.3679654-1.45021645-.3679654-2.2077922 0-.75757576.1082251-1.51515152.3679654-2.25108225.2380952-.67099567.5844155-1.27705628 1.038961-1.81818182.4545455-.51948052 1.038961-.95238095 1.6883117-1.21212121 1.2554112-.51948052 2.6406926-.58441559 3.9177489-.17316018.5194805.17316018.995671.41125541 1.4285714.75757576.4329005.32467532.7792208.75757576 1.0389611 1.21212121.2813853.51948052.4545454 1.08225108.5194805 1.66666667h-2.3160173c-.0865801-.28138528-.1731602-.51948052-.3030303-.75757576z"/><path d="m61.991342.69264069 4.5238095 7.25108225h.021645v-7.25108225h2.2294373v10.82251081h-2.3809524l-4.5021645-7.25108224h-.021645v7.25108224h-2.2294373v-10.82251081z"/><path d="m73.030303 11.5151515-3.5064935-10.82251081h2.4458875l2.4025974 7.5974026h.021645l2.4458874-7.5974026h2.4458875l-3.5930736 10.82251081z"/><path d="m88.1601732.69264069v1.99134199h-5.7142858v2.31601732h5.2380953v1.83982684h-5.2380953v2.64069264h5.8441559v1.99134202h-8.2034632v-10.82251085z"/><path d="m94.9134199.69264069c.4545455 0 .8874459.06493507 1.2987013.23809524.3679654.15151515.7142857.36796537.995671.64935065.2813853.25974026.4978355.58441558.6277056.95238095.1515152.36796537.2164503.75757576.2164503 1.16883117.021645.58441559-.1298702 1.14718615-.4112555 1.64502165-.3030303.49783549-.7575757.86580086-1.2987013 1.06060606v.02164502c.2597403.06493506.5194806.19480519.7359308.36796537.1948052.17316017.3463203.36796536.4761905.58441558.1298701.23809524.2380952.47619048.2813852.73593074.0649351.25974026.0865801.54112554.1082251.82251082 0 .17316017.0216451.36796537.0216451.60606061 0 .23809523.021645.47619045.04329.71428575.021645.2380952.0649351.4545454.1298701.6926407.0432901.1948051.1298702.3896103.2597403.5627705h-2.3809524c-.1515151-.3896104-.2164502-.8008658-.2380952-1.2337662-.021645-.47619049-.0865801-.93073595-.1298702-1.36363638-.04329-.45454546-.2164502-.88744589-.5194805-1.23376624-.2597402-.25974026-.6926407-.38961039-1.2987013-.38961039h-2.3809523v4.22077921h-2.3809524v-10.82251081zm-.8441558 4.89177489c.5411255 0 .9523809-.12987013 1.2337662-.36796536.2813853-.23809524.4112554-.62770563.4112554-1.19047619 0-.51948052-.1298701-.90909091-.4112554-1.14718615s-.6926407-.34632035-1.2337662-.34632035h-2.5974026v3.05194805z"/><path d="m101.277056 8.83116883c.12987.23809524.303031.45454546.519481.60606061.238095.17316017.497835.28138528.757576.34632034.30303.08658009.60606.10822511.90909.10822511.238096 0 .454546-.02164502.670996-.04329004.238095-.02164502.476191-.10822511.670996-.1948052.21645-.08658008.38961-.23809523.541125-.41125541.151515-.19480519.216451-.43290043.216451-.67099567 0-.25974026-.086581-.51948052-.281386-.71428571-.21645-.1948052-.454545-.34632035-.73593-.45454546-.324676-.12987013-.670996-.23809524-1.038961-.32467532-.389611-.08658009-.779221-.1948052-1.168832-.30303031-.411255-.1082251-.800865-.21645021-1.190476-.36796536-.367965-.12987013-.714286-.32467533-1.038961-.56277057-.6709956-.49783549-1.060606-1.29870129-1.0173159-2.14285714-.021645-.4978355.1082251-.99567099.3463203-1.45021645.2380953-.41125541.5627706-.75757576.9523806-1.01731602.389611-.28138528.844156-.47619047 1.298702-.6060606.47619-.12987013.952381-.1948052 1.450216-.1948052.541126 0 1.103896.06493507 1.623377.1948052.497835.10822511.974026.32467532 1.385281.6060606.411256.28138529.735931.64935065.952381 1.08225109.25974.49783549.367965 1.03896103.34632 1.6017316h-2.294372c0-.28138528-.08658-.56277057-.21645-.8008658-.108225-.1948052-.25974-.36796537-.454546-.4978355-.194805-.12987013-.411255-.21645022-.64935-.25974026-.25974-.04329004-.541126-.08658009-.800866-.08658009-.194805 0-.38961.02164502-.584416.06493507-.194805.04329004-.367965.10822511-.51948.21645021-.151515.10822511-.281385.21645022-.38961.38961039-.108226.17316018-.151516.36796537-.151516.58441559 0 .17316017.04329.36796537.129871.51948052.12987.17316017.281385.28138528.47619.36796537.324675.12987013.649351.23809523.974026.32467532.411255.10822511.974026.25974026 1.645022.43290043.194805.04329005.47619.10822511.844155.21645022.389611.10822511.735931.28138528 1.060607.4978355.367965.23809524.670995.56277056.90909.93073593.281386.45454545.411256.97402597.389611 1.49350649 0 .47619048-.08658.95238095-.281385 1.38528139-.194806.4329004-.497836.8008658-.865801 1.1038961-.411256.3246753-.887446.5627706-1.406927.7142857-.627705.1731602-1.298701.2597403-1.948052.2597403-.584415 0-1.168831-.0649351-1.731601-.2164502-.541126-.1298702-1.038961-.3679654-1.493507-.6926407-.4329003-.3246754-.7792207-.7359308-1.0173159-1.21212125-.2597403-.54112554-.3896104-1.12554112-.3679654-1.73160173h2.3809523c-.021645.30303031.04329.62770563.194805.90909091z"/><path d="m114.415584.69264069 4.047619 10.82251081h-2.467532l-.822511-2.42424241h-4.047619l-.844156 2.40259741h-2.402597l4.090909-10.82251083zm.129871 6.62337663-1.363637-3.96103897h-.021645l-1.406926 3.96103897z"/><path d="m116.471861 2.68398268v-1.99134199h8.852814v1.99134199h-3.246753v8.80952382h-2.380952v-8.80952382z"/><path d="m128.614719.69264069v10.82251081h-2.380953v-10.82251081z"/><path d="m129.74026 3.8961039c.238095-.67099567.584415-1.27705628 1.038961-1.81818182.454545-.51948052 1.038961-.95238095 1.688311-1.21212121 1.428572-.58441559 3.051949-.58441559 4.48052 0 .627706.28138528 1.212121.69264069 1.666667 1.21212121.454545.54112554.82251 1.14718615 1.038961 1.81818182.238095.71428571.367965 1.49350649.367965 2.25108225 0 .75757575-.108225 1.49350649-.367965 2.2077922-.238096.64935065-.584416 1.25541126-1.038961 1.77489175-.454546.5194805-1.038961.9090909-1.666667 1.1904762-1.428571.5844156-3.030303.5844156-4.48052 0-.627705-.2597402-1.212121-.6709957-1.666666-1.1904762-.454546-.51948049-.822511-1.1255411-1.038961-1.77489175-.238095-.71428571-.367966-1.45021645-.367966-2.2077922-.021645-.75757576.108226-1.53679654.346321-2.25108225zm2.186147 3.57142857c.108225.41125541.25974.8008658.497835 1.16883117.238096.34632034.541126.62770562.909091.82251082.865801.41125541 1.861472.41125541 2.727273 0 .367965-.1948052.670996-.47619048.909091-.82251082.238095-.34632035.411255-.73593074.497835-1.16883117.108226-.43290044.151516-.88744589.151516-1.32034632 0-.45454546-.04329-.93073593-.151516-1.38528139-.08658-.43290043-.25974-.82251082-.497835-1.19047619-.238095-.34632034-.541126-.62770563-.909091-.84415584-.865801-.41125541-1.861472-.41125541-2.727273 0-.367965.19480519-.670995.4978355-.909091.84415584-.238095.36796537-.411255.75757576-.497835 1.19047619-.108225.45454546-.151515.90909091-.151515 1.38528139-.021645.43290043.04329.88744588.151515 1.32034632z"/><path d="m143.095238.69264069 4.52381 7.25108225h.021645v-7.25108225h2.229437v10.82251081h-2.380953l-4.502164-7.25108224h-.021645v7.25108224h-2.229437v-10.82251081z"/></g></g></svg>

<?xml version="1.0" encoding="UTF-8"?>
<svg width="150px" height="17px" viewBox="0 0 150 17" version="1.1" xmlns="http://www.w3.org/2000/svg" xmlns:xlink="http://www.w3.org/1999/xlink">
    <!-- Generator: Sketch 55.1 (78136) - https://sketchapp.com -->
    <title>logo-white-on-transparent-es</title>
    <desc>Created with Sketch.</desc>
    <g id="logo-white-on-transparent-es" stroke="none" stroke-width="1" fill="none" fill-rule="evenodd">
        <g id="TC_Horizontal-ENG-Reversed" transform="translate(0.000000, 3.000000)" fill="#FFFFFF">
            <path d="M58.5281385,5.95238095 C58.4415584,2.70562771 55.6926407,0.151515152 52.4458874,0.151515152 L48.6147186,0.151515152 C45.3246753,0.151515152 42.6623377,2.81385281 42.6623377,6.1038961 C42.6623377,7.81385281 43.3982684,9.43722944 44.6753247,10.5627706 L43.3549784,13.6796537 L46.6233766,11.7099567 C47.2510823,11.9480519 47.9220779,12.0562771 48.6147186,12.0562771 L52.5974026,12.0562771 C55.9307359,12.0562771 58.6147186,9.30735931 58.5281385,5.95238095 Z M52.6190476,9.89177489 L48.6580087,9.89177489 C46.9480519,9.89177489 45.2164502,8.54978355 44.8917749,6.86147186 C44.4155844,4.43722944 46.2554113,2.31601732 48.6147186,2.31601732 L52.5757576,2.31601732 C54.2857143,2.31601732 56.017316,3.65800866 56.3419913,5.34632035 C56.7965368,7.77056277 54.95671,9.89177489 52.6190476,9.89177489 Z" id="Shape"></path>
            <polygon id="Path" fill-rule="nonzero" points="0.0216450216 2.68398268 0.0216450216 0.692640693 8.8961039 0.692640693 8.8961039 2.68398268 5.62770563 2.68398268 5.62770563 11.4935065 3.24675325 11.4935065 3.24675325 2.68398268"></polygon>
            <polygon id="Path" fill-rule="nonzero" points="12.1645022 0.692640693 12.1645022 4.84848485 16.5367965 4.84848485 16.5367965 0.692640693 18.9177489 0.692640693 18.9177489 11.5151515 16.5367965 11.5151515 16.5367965 6.83982684 12.1645022 6.83982684 12.1645022 11.5151515 9.78354978 11.5151515 9.78354978 0.692640693"></polygon>
            <polygon id="Path" fill-rule="nonzero" points="27.965368 0.692640693 27.965368 2.68398268 22.2510823 2.68398268 22.2510823 5 27.4891775 5 27.4891775 6.83982684 22.2510823 6.83982684 22.2510823 9.48051948 28.0735931 9.48051948 28.0735931 11.4718615 19.8701299 11.4718615 19.8701299 0.649350649"></polygon>
            <path d="M39.1774892,3.57142857 C39.025974,3.33333333 38.8528139,3.13852814 38.6580087,2.96536797 C38.2251082,2.61904762 37.6623377,2.42424242 37.0995671,2.42424242 C36.6233766,2.4025974 36.1471861,2.51082251 35.7359307,2.72727273 C35.3679654,2.92207792 35.0649351,3.2034632 34.8268398,3.57142857 C34.5887446,3.93939394 34.4155844,4.32900433 34.3073593,4.76190476 C34.1991342,5.21645022 34.1558442,5.67099567 34.1558442,6.14718615 C34.1558442,6.6017316 34.1991342,7.03463203 34.3073593,7.46753247 C34.4155844,7.87878788 34.5887446,8.26839827 34.8268398,8.63636364 C35.0649351,8.98268398 35.3679654,9.26406926 35.7359307,9.45887446 C36.1471861,9.67532468 36.6233766,9.78354978 37.0995671,9.76190476 C37.7272727,9.80519481 38.3549784,9.54545455 38.8095238,9.09090909 C39.2424242,8.59307359 39.5021645,7.98701299 39.5670996,7.33766234 L41.8614719,7.33766234 C41.8181818,7.96536797 41.6450216,8.59307359 41.3852814,9.17748918 C41.1471861,9.6969697 40.8008658,10.1731602 40.3896104,10.5627706 C39.978355,10.952381 39.4805195,11.2554113 38.9393939,11.4502165 C38.3549784,11.6666667 37.7272727,11.7532468 37.0995671,11.7532468 C36.3419913,11.7748918 35.5627706,11.6233766 34.8701299,11.3203463 C34.2424242,11.0606061 33.6580087,10.6493506 33.2034632,10.1298701 C32.7489177,9.61038961 32.3809524,9.004329 32.1645022,8.35497835 C31.9264069,7.64069264 31.7965368,6.9047619 31.7965368,6.14718615 C31.7965368,5.38961039 31.9047619,4.63203463 32.1645022,3.8961039 C32.4025974,3.22510823 32.7489177,2.61904762 33.2034632,2.07792208 C33.6580087,1.55844156 34.2424242,1.12554113 34.8917749,0.865800866 C36.1471861,0.346320346 37.5324675,0.281385281 38.8095238,0.692640693 C39.3290043,0.865800866 39.8051948,1.1038961 40.2380952,1.45021645 C40.6709957,1.77489177 41.017316,2.20779221 41.2770563,2.66233766 C41.5584416,3.18181818 41.7316017,3.74458874 41.7965368,4.32900433 L39.4805195,4.32900433 C39.3939394,4.04761905 39.3073593,3.80952381 39.1774892,3.57142857 Z" id="Path" fill-rule="nonzero"></path>
            <polygon id="Path" fill-rule="nonzero" points="61.991342 0.692640693 66.5151515 7.94372294 66.5367965 7.94372294 66.5367965 0.692640693 68.7662338 0.692640693 68.7662338 11.5151515 66.3852814 11.5151515 61.8831169 4.26406926 61.8614719 4.26406926 61.8614719 11.5151515 59.6320346 11.5151515 59.6320346 0.692640693"></polygon>
            <polygon id="Path" fill-rule="nonzero" points="73.030303 11.5151515 69.5238095 0.692640693 71.969697 0.692640693 74.3722944 8.29004329 74.3939394 8.29004329 76.8398268 0.692640693 79.2857143 0.692640693 75.6926407 11.5151515"></polygon>
            <polygon id="Path" fill-rule="nonzero" points="88.1601732 0.692640693 88.1601732 2.68398268 82.4458874 2.68398268 82.4458874 5 87.6839827 5 87.6839827 6.83982684 82.4458874 6.83982684 82.4458874 9.48051948 88.2900433 9.48051948 88.2900433 11.4718615 80.0865801 11.4718615 80.0865801 0.649350649"></polygon>
            <path d="M94.9134199,0.692640693 C95.3679654,0.692640693 95.8008658,0.757575758 96.2121212,0.930735931 C96.5800866,1.08225108 96.9264069,1.2987013 97.2077922,1.58008658 C97.4891775,1.83982684 97.7056277,2.16450216 97.8354978,2.53246753 C97.987013,2.9004329 98.0519481,3.29004329 98.0519481,3.7012987 C98.0735931,4.28571429 97.9220779,4.84848485 97.6406926,5.34632035 C97.3376623,5.84415584 96.8831169,6.21212121 96.3419913,6.40692641 L96.3419913,6.42857143 C96.6017316,6.49350649 96.8614719,6.62337662 97.0779221,6.7965368 C97.2727273,6.96969697 97.4242424,7.16450216 97.5541126,7.38095238 C97.6839827,7.61904762 97.7922078,7.85714286 97.8354978,8.11688312 C97.9004329,8.37662338 97.9220779,8.65800866 97.9437229,8.93939394 C97.9437229,9.11255411 97.965368,9.30735931 97.965368,9.54545455 C97.965368,9.78354978 97.987013,10.021645 98.008658,10.2597403 C98.030303,10.4978355 98.0735931,10.7142857 98.1385281,10.952381 C98.1818182,11.1471861 98.2683983,11.3419913 98.3982684,11.5151515 L96.017316,11.5151515 C95.8658009,11.1255411 95.8008658,10.7142857 95.7792208,10.2813853 C95.7575758,9.80519481 95.6926407,9.35064935 95.6493506,8.91774892 C95.6060606,8.46320346 95.4329004,8.03030303 95.1298701,7.68398268 C94.8701299,7.42424242 94.4372294,7.29437229 93.8311688,7.29437229 L91.4502165,7.29437229 L91.4502165,11.5151515 L89.0692641,11.5151515 L89.0692641,0.692640693 L94.9134199,0.692640693 Z M94.0692641,5.58441558 C94.6103896,5.58441558 95.021645,5.45454545 95.3030303,5.21645022 C95.5844156,4.97835498 95.7142857,4.58874459 95.7142857,4.02597403 C95.7142857,3.50649351 95.5844156,3.11688312 95.3030303,2.87878788 C95.021645,2.64069264 94.6103896,2.53246753 94.0692641,2.53246753 L91.4718615,2.53246753 L91.4718615,5.58441558 L94.0692641,5.58441558 L94.0692641,5.58441558 Z" id="Shape" fill-rule="nonzero"></path>
            <path d="M101.277056,8.83116883 C101.406926,9.06926407 101.580087,9.28571429 101.796537,9.43722944 C102.034632,9.61038961 102.294372,9.71861472 102.554113,9.78354978 C102.857143,9.87012987 103.160173,9.89177489 103.463203,9.89177489 C103.701299,9.89177489 103.917749,9.87012987 104.134199,9.84848485 C104.372294,9.82683983 104.61039,9.74025974 104.805195,9.65367965 C105.021645,9.56709957 105.194805,9.41558442 105.34632,9.24242424 C105.497835,9.04761905 105.562771,8.80952381 105.562771,8.57142857 C105.562771,8.31168831 105.47619,8.05194805 105.281385,7.85714286 C105.064935,7.66233766 104.82684,7.51082251 104.545455,7.4025974 C104.220779,7.27272727 103.874459,7.16450216 103.506494,7.07792208 C103.116883,6.99134199 102.727273,6.88311688 102.337662,6.77489177 C101.926407,6.66666667 101.536797,6.55844156 101.147186,6.40692641 C100.779221,6.27705628 100.4329,6.08225108 100.108225,5.84415584 C99.4372294,5.34632035 99.047619,4.54545455 99.0909091,3.7012987 C99.0692641,3.2034632 99.1991342,2.70562771 99.4372294,2.25108225 C99.6753247,1.83982684 100,1.49350649 100.38961,1.23376623 C100.779221,0.952380952 101.233766,0.757575758 101.688312,0.627705628 C102.164502,0.497835498 102.640693,0.432900433 103.138528,0.432900433 C103.679654,0.432900433 104.242424,0.497835498 104.761905,0.627705628 C105.25974,0.735930736 105.735931,0.952380952 106.147186,1.23376623 C106.558442,1.51515152 106.883117,1.88311688 107.099567,2.31601732 C107.359307,2.81385281 107.467532,3.35497835 107.445887,3.91774892 L105.151515,3.91774892 C105.151515,3.63636364 105.064935,3.35497835 104.935065,3.11688312 C104.82684,2.92207792 104.675325,2.74891775 104.480519,2.61904762 C104.285714,2.48917749 104.069264,2.4025974 103.831169,2.35930736 C103.571429,2.31601732 103.290043,2.27272727 103.030303,2.27272727 C102.835498,2.27272727 102.640693,2.29437229 102.445887,2.33766234 C102.251082,2.38095238 102.077922,2.44588745 101.926407,2.55411255 C101.774892,2.66233766 101.645022,2.77056277 101.536797,2.94372294 C101.428571,3.11688312 101.385281,3.31168831 101.385281,3.52813853 C101.385281,3.7012987 101.428571,3.8961039 101.515152,4.04761905 C101.645022,4.22077922 101.796537,4.32900433 101.991342,4.41558442 C102.316017,4.54545455 102.640693,4.65367965 102.965368,4.74025974 C103.376623,4.84848485 103.939394,5 104.61039,5.17316017 C104.805195,5.21645022 105.08658,5.28138528 105.454545,5.38961039 C105.844156,5.4978355 106.190476,5.67099567 106.515152,5.88744589 C106.883117,6.12554113 107.186147,6.45021645 107.424242,6.81818182 C107.705628,7.27272727 107.835498,7.79220779 107.813853,8.31168831 C107.813853,8.78787879 107.727273,9.26406926 107.532468,9.6969697 C107.337662,10.1298701 107.034632,10.4978355 106.666667,10.8008658 C106.255411,11.1255411 105.779221,11.3636364 105.25974,11.5151515 C104.632035,11.6883117 103.961039,11.7748918 103.311688,11.7748918 C102.727273,11.7748918 102.142857,11.7099567 101.580087,11.5584416 C101.038961,11.4285714 100.541126,11.1904762 100.08658,10.8658009 C99.6536797,10.5411255 99.3073593,10.1298701 99.0692641,9.65367965 C98.8095238,9.11255411 98.6796537,8.52813853 98.7012987,7.92207792 L101.082251,7.92207792 C101.060606,8.22510823 101.125541,8.54978355 101.277056,8.83116883 Z" id="Path" fill-rule="nonzero"></path>
            <path d="M114.415584,0.692640693 L118.463203,11.5151515 L115.995671,11.5151515 L115.17316,9.09090909 L111.125541,9.09090909 L110.281385,11.4935065 L107.878788,11.4935065 L111.969697,0.670995671 L114.415584,0.692640693 Z M114.545455,7.31601732 L113.181818,3.35497835 L113.160173,3.35497835 L111.753247,7.31601732 L114.545455,7.31601732 Z" id="Shape" fill-rule="nonzero"></path>
            <polygon id="Path" fill-rule="nonzero" points="116.471861 2.68398268 116.471861 0.692640693 125.324675 0.692640693 125.324675 2.68398268 122.077922 2.68398268 122.077922 11.4935065 119.69697 11.4935065 119.69697 2.68398268"></polygon>
            <polygon id="Path" fill-rule="nonzero" points="128.614719 0.692640693 128.614719 11.5151515 126.233766 11.5151515 126.233766 0.692640693"></polygon>
            <path d="M129.74026,3.8961039 C129.978355,3.22510823 130.324675,2.61904762 130.779221,2.07792208 C131.233766,1.55844156 131.818182,1.12554113 132.467532,0.865800866 C133.896104,0.281385281 135.519481,0.281385281 136.948052,0.865800866 C137.575758,1.14718615 138.160173,1.55844156 138.614719,2.07792208 C139.069264,2.61904762 139.437229,3.22510823 139.65368,3.8961039 C139.891775,4.61038961 140.021645,5.38961039 140.021645,6.14718615 C140.021645,6.9047619 139.91342,7.64069264 139.65368,8.35497835 C139.415584,9.004329 139.069264,9.61038961 138.614719,10.1298701 C138.160173,10.6493506 137.575758,11.038961 136.948052,11.3203463 C135.519481,11.9047619 133.917749,11.9047619 132.467532,11.3203463 C131.839827,11.0606061 131.255411,10.6493506 130.800866,10.1298701 C130.34632,9.61038961 129.978355,9.004329 129.761905,8.35497835 C129.52381,7.64069264 129.393939,6.9047619 129.393939,6.14718615 C129.372294,5.38961039 129.502165,4.61038961 129.74026,3.8961039 Z M131.926407,7.46753247 C132.034632,7.87878788 132.186147,8.26839827 132.424242,8.63636364 C132.662338,8.98268398 132.965368,9.26406926 133.333333,9.45887446 C134.199134,9.87012987 135.194805,9.87012987 136.060606,9.45887446 C136.428571,9.26406926 136.731602,8.98268398 136.969697,8.63636364 C137.207792,8.29004329 137.380952,7.9004329 137.467532,7.46753247 C137.575758,7.03463203 137.619048,6.58008658 137.619048,6.14718615 C137.619048,5.69264069 137.575758,5.21645022 137.467532,4.76190476 C137.380952,4.32900433 137.207792,3.93939394 136.969697,3.57142857 C136.731602,3.22510823 136.428571,2.94372294 136.060606,2.72727273 C135.194805,2.31601732 134.199134,2.31601732 133.333333,2.72727273 C132.965368,2.92207792 132.662338,3.22510823 132.424242,3.57142857 C132.186147,3.93939394 132.012987,4.32900433 131.926407,4.76190476 C131.818182,5.21645022 131.774892,5.67099567 131.774892,6.14718615 C131.753247,6.58008658 131.818182,7.03463203 131.926407,7.46753247 Z" id="Shape" fill-rule="nonzero"></path>
            <polygon id="Path" fill-rule="nonzero" points="143.095238 0.692640693 147.619048 7.94372294 147.640693 7.94372294 147.640693 0.692640693 149.87013 0.692640693 149.87013 11.5151515 147.489177 11.5151515 142.987013 4.26406926 142.965368 4.26406926 142.965368 11.5151515 140.735931 11.5151515 140.735931 0.692640693"></polygon>
        </g>
    </g>
</svg>
